!!!OTL: Reiter und Hirtenmaedchen Es huet' ein Maedchen die Laemmelein im Holze,
!!!ARE: Europa, Mitteleuropa, Deutschland (), Sachsen, Blattersleben
!!!YOR: 7, S. 109
!!    1910 aufgezeichnet
!!!SCT: Q0148
!!!YEM: Copyright 1995, estate of Helmut Schaffrath.
**kern
*ICvox
*Ivox
!! Mixed meters:  4/4; 6/8
*M4/4
*k[f#]
*G:
{8g
8g
8g
=1
4e
8a
8a
8g
8f#
8e
8f#
=2
4g
4d
8r}
{8g
8g
8g
=3
4e
8a
8a
8g
8f#
8e
8f#
=4
*M6/8
4g
4d
8r}
{8d
=5
8.b
16g
8g
8g
8g
8g
=6
4a
8b
4cc}
{8b
=7
4a
8d
8.d
16d
8d
=8
4g
8a
4b}
{8a
=9
4.g
4.f#
=10
4g
4.r}
==
!!!AGN: Ballade, Verfuehrung, Schwangerschaft
!!!ONB: ESAC (Essen Associative Code) Database: BALLADE
!!!AMT: irregular
!!!AIN: vox
!!!EED: Helmut Schaffrath
!!!EEV: 1.0
*-
